X: 37290
T: Skirmish
R: reel
M: 4/4
K: Dmajor
de|f4 edce|d2 fd ABAG|FDAD BDAD|BAGF E2 de|
f4 edce|d2 fd ABAG|FG A2 EF G2|F2 EC D2:|
|:DE|F2 FD G3 G|F2 FD G3 G|F2 DD GFGA|BAGF E2 DE|
F2 FD G3 G|F2 FD G3 G|FG A2 EF G2|F2 EC D2:|

